packages/foundations/assets/icons/functional/images/technology/speedometer.svg

<svg xmlns="http://www.w3.org/2000/svg" width="32" height="32" fill="none"><path fill="#1A1C1F" fill-rule="evenodd" d="M14.789 4.058c-3.326.297-6.318 1.7-8.684 4.072-1.7 1.704-2.825 3.577-3.509 5.843-.972 3.221-.743 6.655.655 9.814.754 1.701 2.433 3.973 3.077 4.162.687.201 1.38-.391 1.276-1.089-.039-.258-.094-.339-.769-1.135-2.493-2.941-3.4-6.873-2.46-10.668 1.1-4.436 4.745-7.908 9.252-8.811.927-.185 1.575-.234 2.714-.204 1.48.038 2.657.259 3.899.731.804.306 1.152.277 1.505-.124.399-.455.333-1.071-.154-1.437-.224-.169-1.035-.471-1.886-.705a14.4 14.4 0 0 0-4.916-.449m-1.573 4.371c-.399.211-.592.65-.5 1.139.072.385.519.726.949.724.838-.004 1.297-.967.776-1.629-.252-.321-.846-.434-1.225-.234m4.66.005q-.516.257-.516.873c0 .27.026.367.15.554.237.359.776.534 1.174.383.256-.098.512-.377.592-.649.25-.841-.609-1.552-1.4-1.161m5.697.664c-.119.051-1.431 1.324-3.612 3.503l-3.426 3.422-.467.002c-.548.003-.883.104-1.255.377a1.98 1.98 0 0 0-.798 1.575c-.013 1.734 2.025 2.655 3.322 1.501.456-.405.745-1.178.644-1.718l-.045-.24 3.429-3.44c3.542-3.553 3.646-3.669 3.646-4.08 0-.346-.323-.805-.654-.93-.211-.08-.563-.067-.784.028M9.185 10.755c-.562.278-.715 1.051-.298 1.513.485.536 1.308.451 1.624-.169.125-.246.147-.659.046-.857a1.4 1.4 0 0 0-.488-.5c-.192-.101-.667-.093-.884.013M27.6 12.101a.98.98 0 0 0-.531.551c-.122.292-.105.41.153 1.102 1.527 4.082.736 8.682-2.057 11.97-.245.288-.511.613-.593.721-.441.586-.033 1.464.714 1.535.426.041.667-.106 1.234-.753 1.864-2.126 2.987-4.628 3.374-7.52.103-.766.119-2.434.03-3.2-.185-1.607-.829-3.829-1.218-4.201-.314-.301-.731-.378-1.106-.205M6.904 14.767c-.441.201-.679.677-.561 1.125.125.475.492.767.964.767.841 0 1.301-.982.76-1.624-.172-.205-.506-.366-.76-.366-.103 0-.284.044-.403.098m17.387 0a.985.985 0 0 0-.292 1.605c.569.57 1.533.262 1.681-.537.105-.567-.402-1.166-.987-1.166-.102 0-.283.044-.402.098M6.818 19.468c-.241.127-.395.336-.476.644-.204.774.629 1.456 1.367 1.121.745-.338.793-1.401.08-1.765-.274-.14-.706-.14-.971 0m17.386 0c-.243.129-.393.334-.472.648-.196.781.624 1.453 1.364 1.117.745-.338.793-1.401.079-1.765-.274-.14-.706-.14-.971 0M9.253 23.456c-.312.147-.545.436-.59.734-.147.985 1.02 1.566 1.69.841.207-.223.266-.366.268-.652.006-.715-.74-1.218-1.368-.923m12.816-.043a.98.98 0 0 0-.682.928c0 .299.073.497.256.69.284.301.62.391 1.016.273a.99.99 0 0 0 .687-1.071c-.066-.583-.704-.993-1.277-.82"/></svg>

<svg width="32" height="32" viewBox="0 0 32 32" fill="none" xmlns="http://www.w3.org/2000/svg"><path d="M14.789 4.058 C 11.463 4.355,8.471 5.758,6.105 8.130 C 4.405 9.834,3.280 11.707,2.596 13.973 C 1.624 17.194,1.853 20.628,3.251 23.787 C 4.005 25.488,5.684 27.760,6.328 27.949 C 7.015 28.150,7.708 27.558,7.604 26.860 C 7.565 26.602,7.510 26.521,6.835 25.725 C 4.342 22.784,3.435 18.852,4.375 15.057 C 5.475 10.621,9.120 7.149,13.627 6.246 C 14.554 6.061,15.202 6.012,16.341 6.042 C 17.821 6.080,18.998 6.301,20.240 6.773 C 21.044 7.079,21.392 7.050,21.745 6.649 C 22.144 6.194,22.078 5.578,21.591 5.212 C 21.367 5.043,20.556 4.741,19.705 4.507 C 18.145 4.080,16.370 3.918,14.789 4.058 M13.216 8.429 C 12.817 8.640,12.624 9.079,12.716 9.568 C 12.788 9.953,13.235 10.294,13.665 10.292 C 14.503 10.288,14.962 9.325,14.441 8.663 C 14.189 8.342,13.595 8.229,13.216 8.429 M17.876 8.434 C 17.532 8.605,17.360 8.896,17.360 9.307 C 17.360 9.577,17.386 9.674,17.510 9.861 C 17.747 10.220,18.286 10.395,18.684 10.244 C 18.940 10.146,19.196 9.867,19.276 9.595 C 19.526 8.754,18.667 8.043,17.876 8.434 M23.573 9.098 C 23.454 9.149,22.142 10.422,19.961 12.601 L 16.535 16.023 16.068 16.025 C 15.520 16.028,15.185 16.129,14.813 16.402 C 14.319 16.764,14.019 17.356,14.015 17.977 C 14.002 19.711,16.040 20.632,17.337 19.478 C 17.793 19.073,18.082 18.300,17.981 17.760 L 17.936 17.520 21.365 14.080 C 24.907 10.527,25.011 10.411,25.011 10.000 C 25.011 9.654,24.688 9.195,24.357 9.070 C 24.146 8.990,23.794 9.003,23.573 9.098 M9.185 10.755 C 8.623 11.033,8.470 11.806,8.887 12.268 C 9.372 12.804,10.195 12.719,10.511 12.099 C 10.636 11.853,10.658 11.440,10.557 11.242 C 10.465 11.065,10.235 10.829,10.069 10.742 C 9.877 10.641,9.402 10.649,9.185 10.755 M27.600 12.101 C 27.342 12.220,27.179 12.389,27.069 12.652 C 26.947 12.944,26.964 13.062,27.222 13.754 C 28.749 17.836,27.958 22.436,25.165 25.724 C 24.920 26.012,24.654 26.337,24.572 26.445 C 24.131 27.031,24.539 27.909,25.286 27.980 C 25.712 28.021,25.953 27.874,26.520 27.227 C 28.384 25.101,29.507 22.599,29.894 19.707 C 29.997 18.941,30.013 17.273,29.924 16.507 C 29.739 14.900,29.095 12.678,28.706 12.306 C 28.392 12.005,27.975 11.928,27.600 12.101 M6.904 14.767 C 6.463 14.968,6.225 15.444,6.343 15.892 C 6.468 16.367,6.835 16.659,7.307 16.659 C 8.148 16.659,8.608 15.677,8.067 15.035 C 7.895 14.830,7.561 14.669,7.307 14.669 C 7.204 14.669,7.023 14.713,6.904 14.767 M24.291 14.767 C 23.652 15.057,23.503 15.876,23.999 16.372 C 24.568 16.942,25.532 16.634,25.680 15.835 C 25.785 15.268,25.278 14.669,24.693 14.669 C 24.591 14.669,24.410 14.713,24.291 14.767 M6.818 19.468 C 6.577 19.595,6.423 19.804,6.342 20.112 C 6.138 20.886,6.971 21.568,7.709 21.233 C 8.454 20.895,8.502 19.832,7.789 19.468 C 7.515 19.328,7.083 19.328,6.818 19.468 M24.204 19.468 C 23.961 19.597,23.811 19.802,23.732 20.116 C 23.536 20.897,24.356 21.569,25.096 21.233 C 25.841 20.895,25.889 19.832,25.175 19.468 C 24.901 19.328,24.469 19.328,24.204 19.468 M9.253 23.456 C 8.941 23.603,8.708 23.892,8.663 24.190 C 8.516 25.175,9.683 25.756,10.353 25.031 C 10.560 24.808,10.619 24.665,10.621 24.379 C 10.627 23.664,9.881 23.161,9.253 23.456 M22.069 23.413 C 21.671 23.533,21.387 23.920,21.387 24.341 C 21.387 24.640,21.460 24.838,21.643 25.031 C 21.927 25.332,22.263 25.422,22.659 25.304 C 23.112 25.169,23.401 24.720,23.346 24.233 C 23.280 23.650,22.642 23.240,22.069 23.413 " fill="#1A1C1F" stroke="none" fill-rule="evenodd"></path></svg>
